app/images/svg/certificate 1.svg

<svg width="88" height="88" viewBox="0 0 88 88" fill="none" xmlns="http://www.w3.org/2000/svg">
<g clip-path="url(#clip0_204_2002)">
<path d="M25.1114 0.275009C22.9801 0.842194 21.2098 2.3547 20.2301 4.4172C19.7317 5.46563 19.6801 5.77501 19.6285 7.51095L19.5598 9.45313H17.377C16.1911 9.45313 14.7129 9.53907 14.0942 9.62501C11.052 10.1063 8.4223 12.4609 7.66605 15.3828C7.42543 16.2766 7.39105 20.0578 7.39105 48.7266C7.39105 84.0813 7.33949 82.0016 8.37074 83.9094C8.93793 84.9578 10.2442 86.2984 11.2926 86.9C11.7223 87.1578 12.5817 87.5188 13.2176 87.6906C14.2832 87.9828 15.6411 88 39.1364 88C56.702 88 64.1785 87.9484 64.8317 87.8109C68.5785 87.0203 71.1567 83.6688 71.1567 79.5609V78.5469H72.2395C75.5395 78.5469 78.1176 77.2578 79.527 74.9203C80.6785 72.9781 80.6098 75.35 80.6098 39.1703C80.6098 7.54532 80.5926 6.35938 80.2832 5.34532C79.8535 3.93594 79.252 2.97344 78.2379 2.02813C77.2411 1.10001 76.3473 0.618759 74.9895 0.25782C73.5285 -0.120308 26.5207 -0.103119 25.1114 0.275009ZM75.2817 2.81876C76.3817 3.40313 77.1035 4.09063 77.6192 5.01876L78.1176 5.9297L78.1692 38.9297C78.2207 75.9344 78.3239 72.8234 76.9145 74.3875C75.8489 75.5563 74.766 76.0031 72.7551 76.1063L71.1567 76.175L71.1395 46.3891C71.1395 18.7859 71.1223 16.5 70.8473 15.4516C70.0567 12.4438 67.4957 10.1063 64.4535 9.62501C63.7317 9.52188 55.8598 9.45313 42.677 9.45313H22.0004V7.8547C22.0004 6.63438 22.0864 6.10157 22.3614 5.50001C23.0317 4.00469 23.9254 3.1797 25.4207 2.64688C25.9192 2.45782 30.7661 2.42345 50.3598 2.45782C73.8379 2.4922 74.6973 2.50938 75.2817 2.81876ZM41.1989 19.25C41.2504 26.4516 41.2504 26.5547 41.6114 26.8469C41.8176 27.0188 42.2645 27.1563 42.6082 27.1563C43.141 27.1563 43.8114 26.7781 46.6301 24.8875L50.016 22.6188L53.2473 24.7844C55.0176 25.9703 56.5645 27.0016 56.6848 27.0703C57.0285 27.2594 57.8535 26.8469 58.077 26.3656C58.2145 26.0734 58.266 23.7531 58.266 18.8891V11.825L61.4114 11.8938C64.1614 11.9453 64.6426 11.9969 65.3473 12.3234C66.4817 12.8391 67.7707 14.1109 68.252 15.1766L68.6645 16.0703V48.7438V81.4172L68.0629 82.6031C67.6332 83.4453 67.2207 83.9609 66.602 84.425C64.9692 85.6625 66.791 85.5938 39.1707 85.5938C14.5582 85.5938 14.2661 85.5938 13.3379 85.25C12.152 84.8031 11.0348 83.8234 10.3989 82.6547L9.88324 81.7266L9.83168 49.0703C9.7973 12.925 9.71136 15.7094 10.9145 14.0594C11.5676 13.1656 12.7192 12.4094 13.9051 12.1C14.5067 11.9281 17.8754 11.8938 27.9301 11.9109L41.1645 11.9453L41.1989 19.25ZM55.8598 17.7031C55.8598 20.9172 55.8254 23.5469 55.7739 23.5469C55.7223 23.5469 54.502 22.7563 53.0754 21.7938C51.4598 20.7281 50.291 20.0578 50.016 20.0578C49.7411 20.0578 48.4864 20.7969 46.6645 22.0172C45.0489 23.1 43.6911 23.9938 43.6223 24.0281C43.4504 24.0969 43.4332 12.1344 43.6051 11.9797C43.6567 11.9109 46.4411 11.8594 49.7926 11.8594H55.8598V17.7031Z" fill="white"/>
<path d="M23.6512 36.5234C23.1184 37.0562 23.1871 37.9672 23.7887 38.3625C23.8918 38.4312 31.8324 38.5 41.4402 38.5C58.1465 38.5 58.9199 38.4828 59.1777 38.1906C59.5559 37.7609 59.5387 36.9016 59.1605 36.5578C58.8684 36.2828 57.3902 36.2656 41.3715 36.2656C26.0574 36.2656 23.8918 36.3 23.6512 36.5234Z" fill="white"/>
<path d="M23.5641 47.8844C23.3578 48.1422 23.2031 48.4 23.2031 48.486C23.2031 48.9156 23.5813 49.4656 24.0109 49.6547C24.3719 49.7922 28.8234 49.8438 41.6109 49.8094C58.1797 49.7578 58.7641 49.7406 59.1078 49.4313C59.6063 48.9844 59.5891 48.0563 59.0906 47.7125C58.7469 47.4719 56.7703 47.4375 41.3188 47.4375H23.9078L23.5641 47.8844Z" fill="white"/>
<path d="M23.5465 59.0734C23.2887 59.4 23.2199 59.675 23.2887 59.9844C23.5465 60.9984 22.3434 60.9297 41.2325 60.9812L58.5574 61.0156L59.0043 60.6547C59.5715 60.225 59.6231 59.4516 59.1246 58.9531C58.7809 58.6094 58.5574 58.6094 41.3528 58.6094H23.9074L23.5465 59.0734Z" fill="white"/>
<path d="M23.6328 70.2109C23.3922 70.4344 23.2031 70.7781 23.2031 70.9844C23.2031 71.1734 23.3922 71.5344 23.6328 71.7578L24.0453 72.1875H41.4219C58.5578 72.1875 58.7812 72.1875 59.125 71.8438C59.5719 71.3969 59.5719 70.5719 59.125 70.125C58.7812 69.7812 58.5578 69.7812 41.4219 69.7812H24.0453L23.6328 70.2109Z" fill="white"/>
</g>
<defs>
<clipPath id="clip0_204_2002">
<rect width="88" height="88" fill="white"/>
</clipPath>
</defs>
</svg>

<svg width="88" height="88" viewBox="0 0 88 88" fill="none" xmlns="http://www.w3.org/2000/svg"><g clip-path="url(#clip0_204_2002)" fill="#fff"><path d="M25.111.275c-2.13.567-3.901 2.08-4.88 4.142-.5 1.049-.55 1.358-.603 3.094l-.068 1.942h-2.183c-1.186 0-2.664.086-3.283.172-3.042.481-5.672 2.836-6.428 5.758-.24.894-.275 4.675-.275 33.344 0 35.354-.052 33.275.98 35.182.567 1.049 1.873 2.39 2.922 2.991.43.258 1.289.619 1.925.79 1.065.293 2.423.31 25.918.31 17.566 0 25.042-.052 25.696-.19 3.747-.79 6.325-4.141 6.325-8.25v-1.013h1.083c3.3 0 5.878-1.29 7.287-3.627 1.151-1.942 1.083.43 1.083-35.75 0-31.625-.017-32.81-.327-33.825-.43-1.41-1.031-2.372-2.045-3.317-.997-.928-1.89-1.41-3.248-1.77-1.462-.378-48.47-.361-49.88.017zm50.17 2.544c1.1.584 1.822 1.272 2.338 2.2l.499.91.051 33c.052 37.005.155 33.894-1.254 35.459-1.066 1.168-2.149 1.615-4.16 1.718l-1.598.069-.017-29.786c0-27.603-.018-29.889-.293-30.937-.79-3.008-3.351-5.346-6.393-5.827-.722-.103-8.594-.172-21.777-.172H22V7.855c0-1.22.086-1.753.361-2.355.67-1.495 1.564-2.32 3.06-2.853.498-.19 5.345-.224 24.939-.19 23.478.035 24.337.052 24.922.362zM41.2 19.25c.051 7.202.051 7.305.412 7.597.207.172.654.31.997.31.533 0 1.203-.379 4.022-2.27l3.386-2.268 3.231 2.165a296.875 296.875 0 003.438 2.286c.343.19 1.168-.223 1.392-.704.138-.293.189-2.613.189-7.477v-7.064l3.145.069c2.75.051 3.232.103 3.936.43 1.135.515 2.424 1.787 2.905 2.853l.413.893v65.347l-.602 1.186c-.43.842-.842 1.358-1.461 1.822-1.633 1.237.189 1.169-27.431 1.169-24.613 0-24.905 0-25.833-.344-1.186-.447-2.303-1.427-2.94-2.595l-.515-.928-.051-32.657c-.035-36.145-.12-33.36 1.082-35.01.654-.894 1.805-1.65 2.991-1.96.602-.172 3.97-.206 14.025-.19l13.234.035.035 7.305zm14.66-1.547c0 3.214-.034 5.844-.085 5.844-.052 0-1.272-.79-2.699-1.753-1.615-1.066-2.784-1.736-3.059-1.736-.275 0-1.53.739-3.352 1.96-1.615 1.082-2.973 1.976-3.042 2.01-.172.069-.189-11.894-.017-12.048.052-.07 2.836-.12 6.188-.12h6.067v5.843z"/><path d="M23.651 36.523c-.533.533-.464 1.444.138 1.84.103.068 8.043.137 17.651.137 16.707 0 17.48-.017 17.738-.31.378-.43.36-1.288-.017-1.632-.293-.275-1.77-.292-17.79-.292-15.314 0-17.48.034-17.72.257zm-.087 11.361c-.206.258-.36.516-.36.602 0 .43.377.98.807 1.169.36.137 4.812.189 17.6.154 16.569-.051 17.153-.068 17.497-.378.498-.447.481-1.375-.017-1.718-.344-.241-2.32-.276-17.772-.276H23.908l-.344.447zm-.017 11.189c-.258.327-.327.602-.258.911.258 1.014-.946.946 17.944.997l17.324.035.447-.361c.568-.43.62-1.203.12-1.702-.343-.344-.567-.344-17.771-.344H23.907l-.36.464zm.086 11.137c-.24.224-.43.568-.43.774 0 .19.19.55.43.774l.412.43h17.377c17.136 0 17.36 0 17.703-.344.447-.447.447-1.272 0-1.719-.344-.344-.567-.344-17.703-.344H24.045l-.412.43z"/></g><defs><clipPath id="clip0_204_2002"><path fill="#fff" d="M0 0h88v88H0z"/></clipPath></defs></svg>
